X: 83
T:Cainc Dafydd ap Gwilym
T:David ap Gwilym's Tune
M:6/8
L:1/8
Q:130
C:Trad
S:Blodau'r Grug Collection Vol. 3
A:Wales
Z:brian_martin12345@yahoo.com
K:C
G|c2c GEG|c2e dBG|c2c GEG|cdB c2:||!
G|c2G AGF|d2A BAG|d2fe2c|dcBc2:||

